src/components/common/icons/pin.svg

<svg height="48" viewBox="0 0 37 48" width="37" xmlns="http://www.w3.org/2000/svg"><g fill="#010202" fill-rule="evenodd"><path d="m18.6903087 10.81712c-3.9477391 0-7.1474348 3.1824-7.1474348 7.1088 0 3.9248 3.1996957 7.1072 7.1474348 7.1072s7.1458261-3.1824 7.1458261-7.1072c0-3.9264-3.198087-7.1088-7.1458261-7.1088m0 10.6624c-1.9722609 0-3.5745217-1.5952-3.5745217-3.5536 0-1.96 1.6022608-3.5552 3.5745217-3.5552 1.9706522 0 3.572913 1.5952 3.572913 3.5552 0 1.9584-1.6022608 3.5536-3.572913 3.5536"/><path d="m31.4498391 5.35936c-3.5230434-3.4704-8.1432174-5.2048-12.7617826-5.2048-4.6153478 0-9.23391302 1.7344-12.7569565 5.2048-7.04769565 6.9392-6.56991304 17.7536 0 25.1312 6.7436522 7.5776 10.3503478 12.304 12.7569565 17.0528 2.4194783-4.7488 6.0165218-9.4752 12.7617826-17.0528 6.5699131-7.3776 7.046087-18.192 0-25.1312m-2.6752608 22.776c-4.625 5.1936-7.7619566 9.048-10.0833044 12.4528-2.3116956-3.3952-5.4534782-7.2512-10.08491303-12.4528-2.664-2.9936-4.15847826-6.6928-4.20834783-10.4208-.05147826-3.7744 1.34808696-7.1728 4.04747826-9.8304 2.7331739-2.6912 6.3720435-4.1744 10.2425652-4.1744 3.8737392 0 7.511 1.4832 10.2473913 4.1744 2.6961739 2.6576 4.0957392 6.056 4.0474783 9.8304-.0498696 3.728-1.5443478 7.4272-4.2083478 10.4208"/></g></svg>

<?xml version="1.0" encoding="UTF-8"?>
<svg width="37px" height="48px" viewBox="0 0 37 48" version="1.1" xmlns="http://www.w3.org/2000/svg" xmlns:xlink="http://www.w3.org/1999/xlink">
    <!-- Generator: Sketch 52.5 (67469) - http://www.bohemiancoding.com/sketch -->
    <title>Icons/.pin</title>
    <desc>Created with Sketch.</desc>
    <g id="Vapaaehtoisalusta-Layouts" stroke="none" stroke-width="1" fill="none" fill-rule="evenodd">
        <g id="HKI-Ikonit" transform="translate(-557.000000, -791.000000)" fill="#010202">
            <g id="Icons/.pin" transform="translate(557.000000, 791.000000)">
                <path d="M18.6903087,10.81712 C14.7425696,10.81712 11.5428739,13.99952 11.5428739,17.92592 C11.5428739,21.85072 14.7425696,25.03312 18.6903087,25.03312 C22.6380478,25.03312 25.8361348,21.85072 25.8361348,17.92592 C25.8361348,13.99952 22.6380478,10.81712 18.6903087,10.81712 M18.6903087,21.47952 C16.7180478,21.47952 15.115787,19.88432 15.115787,17.92592 C15.115787,15.96592 16.7180478,14.37072 18.6903087,14.37072 C20.6609609,14.37072 22.2632217,15.96592 22.2632217,17.92592 C22.2632217,19.88432 20.6609609,21.47952 18.6903087,21.47952" id="Fill-45"></path>
                <path d="M31.4498391,5.35936 C27.9267957,1.88896 23.3066217,0.15456 18.6880565,0.15456 C14.0727087,0.15456 9.45414348,1.88896 5.9311,5.35936 C-1.11659565,12.29856 -0.638813043,23.11296 5.9311,30.49056 C12.6747522,38.06816 16.2814478,42.79456 18.6880565,47.54336 C21.1075348,42.79456 24.7045783,38.06816 31.4498391,30.49056 C38.0197522,23.11296 38.4959261,12.29856 31.4498391,5.35936 M28.7745783,28.13536 C24.1495783,33.32896 21.0126217,37.18336 18.6912739,40.58816 C16.3795783,37.19296 13.2377957,33.33696 8.60636087,28.13536 C5.94236087,25.14176 4.44788261,21.44256 4.39801304,17.71456 C4.34653478,13.94016 5.7461,10.54176 8.4454913,7.88416 C11.1786652,5.19296 14.8175348,3.70976 18.6880565,3.70976 C22.5617957,3.70976 26.1990565,5.19296 28.9354478,7.88416 C31.6316217,10.54176 33.031187,13.94016 32.9829261,17.71456 C32.9330565,21.44256 31.4385783,25.14176 28.7745783,28.13536" id="Fill-46"></path>
            </g>
        </g>
    </g>
</svg>
